%
(Header)
(Generated by gcodetools from Inkscape.)
(Using default header. To add your own header create file "header" in the output dir.)
M3
(Header end.)
G21 (All units in mm)

(Start cutting path id: text1)
(Change tool to Default tool)

G00 Z1.000000
G00 X18.577175 Y95.524012

G01 Z-1.000000 F100.0(Penetrate)
G01 X15.827997 Y95.524012 Z-1.000000 F400.000000
G01 X15.827997 Y88.738918 Z-1.000000
G01 X14.804807 Y88.738918 Z-1.000000
G01 X14.804807 Y95.524012 Z-1.000000
G01 X12.055630 Y95.524012 Z-1.000000
G01 X12.055630 Y96.433515 Z-1.000000
G01 X18.577175 Y96.433515 Z-1.000000
G01 X18.577175 Y95.524012 Z-1.000000
G00 Z1.000000

(End cutting path id: text1)


(Start cutting path id: text1)
(Change tool to Default tool)

G00 Z1.000000
G00 X24.680142 Y88.738918

G01 Z-1.000000 F100.0(Penetrate)
G01 X19.610700 Y88.738918 Z-1.000000 F400.000000
G01 X19.610700 Y96.433515 Z-1.000000
G01 X24.680142 Y96.433515 Z-1.000000
G01 X24.680142 Y95.524012 Z-1.000000
G01 X20.633890 Y95.524012 Z-1.000000
G01 X20.633890 Y93.415621 Z-1.000000
G01 X24.680142 Y93.415621 Z-1.000000
G01 X24.680142 Y92.506118 Z-1.000000
G01 X20.633890 Y92.506118 Z-1.000000
G01 X20.633890 Y89.648421 Z-1.000000
G01 X24.680142 Y89.648421 Z-1.000000
G01 X24.680142 Y88.738918 Z-1.000000
G00 Z1.000000

(End cutting path id: text1)


(Start cutting path id: text1)
(Change tool to Default tool)

G00 Z1.000000
G00 X31.894148 Y90.935160

G01 Z-1.000000 F100.0(Penetrate)
G02 X31.842687 Y90.497339 Z-1.000000 I-1.888181 J0.000000 F400.000000
G02 X31.682276 Y90.046328 Z-1.000000 I-2.165687 J0.516238
G02 X31.432328 Y89.641021 Z-1.000000 I-1.914618 J0.900997
G02 X31.098334 Y89.302190 Z-1.000000 I-1.661807 J1.304058
G02 X30.661581 Y89.014227 Z-1.000000 I-1.781763 J2.227204
G02 X30.131988 Y88.785427 Z-1.000000 I-1.635672 J3.058703
G02 X29.575363 Y88.653008 Z-1.000000 I-0.981755 J2.890718
G02 X28.809075 Y88.599392 Z-1.000000 I-0.766288 J5.449147
G02 X27.981983 Y88.642059 Z-1.000000 I-0.000000 J8.037881
G02 X27.310463 Y88.754421 Z-1.000000 I0.558987 J5.403538
G02 X26.659652 Y88.941160 Z-1.000000 I1.570594 J6.701192
G02 X25.961713 Y89.214340 Z-1.000000 I2.722062 J7.982669
G01 X25.961713 Y90.495911 Z-1.000000
G01 X26.034063 Y90.495911 Z-1.000000
G03 X26.652892 Y90.072108 Z-1.000000 I2.571931 J3.091785
G03 X27.382813 Y89.746606 Z-1.000000 I2.217585 J3.991655
G03 X28.157702 Y89.543251 Z-1.000000 I1.736850 J5.040271
G03 X28.819413 Y89.483057 Z-1.000000 I0.661711 J3.606970
G03 X29.736821 Y89.592158 Z-1.000000 I0.000000 J3.911696
G03 X30.297355 Y89.839623 Z-1.000000 I-0.403530 J1.672604
G03 X30.693549 Y90.268816 Z-1.000000 I-0.697745 J1.041561
G03 X30.829620 Y90.790466 Z-1.000000 I-0.931880 J0.521650
G01 X30.576407 Y91.544940 Z-1.000000
G03 X30.301450 Y91.740362 Z-1.000000 I-0.754825 J-0.770889
G03 X29.816765 Y91.922176 Z-1.000000 I-1.130074 J-2.275636
G03 X29.426725 Y92.013575 Z-1.000000 I-1.696618 J-6.362288
G03 X28.974442 Y92.092708 Z-1.000000 I-1.716385 J-8.477884
G02 X28.525974 Y92.166198 Z-1.000000 I2.382353 J15.943217
G02 X28.018431 Y92.263240 Z-1.000000 I3.659978 J20.518022
G02 X27.058297 Y92.593036 Z-1.000000 I0.866621 J4.085505
G02 X26.499149 Y93.002210 Z-1.000000 I0.850913 J1.749430
G02 X26.145269 Y93.583243 Z-1.000000 I1.235674 J1.150874
G02 X26.008224 Y94.371631 Z-1.000000 I2.199185 J0.788388
G02 X26.217613 Y95.233548 Z-1.000000 I1.878669 J0.000000
G02 X26.824710 Y95.952925 Z-1.000000 I1.880028 J-0.970734
G02 X27.700192 Y96.397817 Z-1.000000 I1.664426 J-2.191494
G02 X28.896928 Y96.573041 Z-1.000000 I1.196736 J-3.999091
G02 X29.703509 Y96.531144 Z-1.000000 I-0.000000 J-7.785072
G02 X30.385204 Y96.418012 Z-1.000000 I-0.590421 J-5.668037
G02 X31.053073 Y96.235368 Z-1.000000 I-1.848519 J-8.071863
G02 X31.584094 Y96.035607 Z-1.000000 I-1.689569 J-5.297030
G01 X31.584094 Y94.826383 Z-1.000000
G01 X31.511744 Y94.826383 Z-1.000000
G03 X31.042084 Y95.144642 Z-1.000000 I-1.713208 J-2.022538
G03 X30.354196 Y95.441330 Z-1.000000 I-2.168258 J-4.081428
G03 X29.630553 Y95.627167 Z-1.000000 I-1.473871 J-4.237381
G03 X28.891757 Y95.689376 Z-1.000000 I-0.738796 J-4.355818
G03 X28.100990 Y95.589081 Z-1.000000 I0.000000 J-3.167511
G03 X27.568845 Y95.348313 Z-1.000000 I0.424584 J-1.646871
G01 X27.072753 Y94.469816 Z-1.000000
G01 X27.320799 Y93.715343 Z-1.000000
G01 X28.194128 Y93.296765 Z-1.000000
G03 X28.525845 Y93.229514 Z-1.000000 I2.357494 J10.776633
G03 X29.134636 Y93.121066 Z-1.000000 I6.761851 J36.195852
G02 X29.742211 Y93.007334 Z-1.000000 I-3.011457 J-17.767515
G02 X30.168161 Y92.909193 Z-1.000000 I-1.809737 J-8.827971
G02 X30.973266 Y92.593203 Z-1.000000 I-0.966356 J-3.645805
G02 X31.460068 Y92.221899 Z-1.000000 I-0.887676 J-1.668564
G02 X31.766751 Y91.711354 Z-1.000000 I-1.012424 J-0.955544
G02 X31.894148 Y90.935160 Z-1.000000 I-2.300864 J-0.776194
G01 X31.894148 Y90.935160 Z-1.000000
G00 Z1.000000

(End cutting path id: text1)


(Start cutting path id: text1)
(Change tool to Default tool)

G00 Z1.000000
G00 X39.025474 Y95.524012

G01 Z-1.000000 F100.0(Penetrate)
G01 X36.276297 Y95.524012 Z-1.000000 F400.000000
G01 X36.276297 Y88.738918 Z-1.000000
G01 X35.253107 Y88.738918 Z-1.000000
G01 X35.253107 Y95.524012 Z-1.000000
G01 X32.503929 Y95.524012 Z-1.000000
G01 X32.503929 Y96.433515 Z-1.000000
G01 X39.025474 Y96.433515 Z-1.000000
G01 X39.025474 Y95.524012 Z-1.000000
G00 Z1.000000

(End cutting path id: text1)


(Footer)
M5
G00 X0.0000 Y0.0000
M2
(Using default footer. To add your own footer create file "footer" in the output dir.)
(end)
%